X:1
T:Title
%%score { ( 1 4 ) | ( 2 3 ) }
L:1/8
Q:1/4=76
M:2/4
K:D
V:1 treble nm="Grand Piano"
V:4 treble 
V:2 bass 
V:3 bass 
V:1
 [DF][EG] [FA][Fd] | [DF][EG] [FA]2 | [GB][FA] [EG][CE] | [CA][EG] [A,DF]D | F[EG] [FA][Fd] | %5
w: J.~H.~Kurzenknabe * * *|||||
 [DF][EG] [FA]2 | BB Ad | [Gd][Gc] [Fd]2 | e>d cB | [FA][Fd] [DF]2 | [FA]>[EG] [CE][EG] | BA FA | %12
w: |||||||
 BB ee | d/c/B/c/ [Fd]2 | dB Ad | [DF][CE] D2 |] %16
w: ||||
V:2
 [D,A,][D,D] [D,D][D,A,] | [D,A,][D,D] [D,D]2 | [D,D][D,D] [C,A,][A,,A,] | [A,,A,][A,,A,] z F, | %4
 [D,A,D][D,D] [D,D][D,A,] | [D,A,][D,D] [D,D]2 | [G,DG][G,DG] [A,DF][A,F] | %7
 [A,,A,][A,,A,] [D,A,]2 | [A,CG]>[A,EG] [A,EG][A,CG] | [D,D][D,A,] [D,A,]2 | %10
 [A,,A,]>[A,,A,] [A,,A,][A,,A,] | [D,G,D][D,F,D] [A,D][K:treble][DF] | %12
 [G,DG][G,DG] [G,B,G][G,B,G] | F/E/[K:bass][A,,A,] [D,A,]2 | [G,B,G][G,DG] [A,DF][A,F] | %15
 [A,,A,][A,,G,] [D,F,]2 |] %16
V:3
 x4 | x4 | x4 | z2 D,2 | x4 | x4 | x4 | x4 | x4 | x4 | x4 | z2 D,2[K:treble] | x4 | %13
 .A,2[K:bass] z2 | x4 | x4 |] %16
V:4
 x4 | x4 | x4 | x4 | x4 | x4 | x4 | x4 | x4 | x4 | x4 | x4 | x4 | z G z2 | x4 | x4 |] %16

